X: 1
T: Boston Urban Ceilidh, The
M: 4/4
L: 1/8
R: reel
K: Dmaj
|:f3g fede|ff2g fedc|BAGB ABcA |cdec defg|
  f3g fed2|ff2g fed2 |BAGB ABcA|1cdec d3e:|2cdec defg||
|:ad (3ddd adad|aB (3BBB gBgB|ac (3ccc acac|fgfe defg|
  ad (3ddd adad|aB (3BBB gBbg|ac (3ccc acac|fgfe d4 :|
